X: 40362
T: Tom Doherty's
R: reel
M: 4/4
K: Ddorian
|:A2FA DAFA|AGAB cdcB|A2FA DAFA|GECE GAcB|
A2FA DAFA|AGAB c2Bc|dBcA BGAF|GECE GABc:|
|:dDDD ADDD|dDDD c2Bc|dDDD AGFA|GECE GABc|
dDDD ADDD|dDDD c2Bc|dBcA BGAF|GECE GABc:|

